mono-glyphs/taskbar-w.svg

<svg xmlns="http://www.w3.org/2000/svg" width="1024" height="1024" fill="none" viewBox="0 0 1024 1024">
  <path fill="#fff" d="M898.5 128c16.667 0 32.583 3.417 47.75 10.25 15.167 6.833 28.5 16 40 27.5s20.67 24.833 27.5 40c6.83 15.167 10.25 31.083 10.25 47.75v517c0 16.667-3.42 32.583-10.25 47.75-6.83 15.167-16 28.5-27.5 40s-24.833 20.667-40 27.5C931.083 892.583 915.167 896 898.5 896h-773c-16.667 0-32.583-3.417-47.75-10.25-15.167-6.833-28.5-16-40-27.5s-20.667-24.833-27.5-40C3.417 803.083 0 787.167 0 770.5v-517c0-16.667 3.417-32.583 10.25-47.75 6.833-15.167 16-28.5 27.5-40s24.833-20.667 40-27.5C92.917 131.417 108.833 128 125.5 128h773ZM128 192c-9 0-17.333 1.667-25 5-7.667 3.333-14.417 7.917-20.25 13.75S72.333 223.333 69 231s-5 16-5 25v384h896V256c0-8.667-1.667-16.917-5-24.75-3.333-7.833-7.917-14.667-13.75-20.5s-12.667-10.417-20.5-13.75-16.083-5-24.75-5H128Zm832 512H64v64c0 9 1.667 17.417 5 25.25 3.333 7.833 7.833 14.583 13.5 20.25s12.417 10.167 20.25 13.5 16.25 5 25.25 5h768c9 0 17.333-1.667 25-5 7.667-3.333 14.417-7.917 20.25-13.75S951.667 800.667 955 793s5-16 5-25v-64Z"/>
</svg>

<svg width="1024" height="1024" viewBox="0 0 1024 1024" fill="none" xmlns="http://www.w3.org/2000/svg">
<g clip-path="url(#clip0_32_108)">
<mask id="mask0_32_108" style="mask-type:luminance" maskUnits="userSpaceOnUse" x="0" y="128" width="1024" height="768">
<path d="M1024 128H0V896H1024V128Z" fill="white"/>
</mask>
<g mask="url(#mask0_32_108)">
<path d="M898.5 128C915.167 128 931.083 131.417 946.25 138.25C961.417 145.083 974.75 154.25 986.25 165.75C997.75 177.25 1006.92 190.583 1013.75 205.75C1020.58 220.917 1024 236.833 1024 253.5V770.5C1024 787.167 1020.58 803.083 1013.75 818.25C1006.92 833.417 997.75 846.75 986.25 858.25C974.75 869.75 961.417 878.917 946.25 885.75C931.083 892.583 915.167 896 898.5 896H125.5C108.833 896 92.9167 892.583 77.75 885.75C62.5833 878.917 49.25 869.75 37.75 858.25C26.25 846.75 17.0833 833.417 10.25 818.25C3.41667 803.083 0 787.167 0 770.5V253.5C0 236.833 3.41667 220.917 10.25 205.75C17.0833 190.583 26.25 177.25 37.75 165.75C49.25 154.25 62.5833 145.083 77.75 138.25C92.9167 131.417 108.833 128 125.5 128H898.5ZM128 192C119 192 110.667 193.667 103 197C95.3333 200.333 88.5833 204.917 82.75 210.75C76.9167 216.583 72.3333 223.333 69 231C65.6667 238.667 64 247 64 256V640H960V256C960 247.333 958.333 239.083 955 231.25C951.667 223.417 947.083 216.583 941.25 210.75C935.417 204.917 928.583 200.333 920.75 197C912.917 193.667 904.667 192 896 192H128ZM960 704H64V768C64 777 65.6667 785.417 69 793.25C72.3333 801.083 76.8333 807.833 82.5 813.5C88.1667 819.167 94.9167 823.667 102.75 827C110.583 830.333 119 832 128 832H896C905 832 913.333 830.333 921 827C928.667 823.667 935.417 819.083 941.25 813.25C947.083 807.417 951.667 800.667 955 793C958.333 785.333 960 777 960 768V704Z" fill="white"/>
</g>
</g>
<defs>
<clipPath id="clip0_32_108">
<rect width="1024" height="768" fill="white" transform="translate(0 128)"/>
</clipPath>
</defs>
</svg>
